report_00007_2020-12-11T15:55:29.892Z/mainthread-work-breakdown/comparison/sorted/8_vs_9.svg

<svg width="640" height="500" xmlns="http://www.w3.org/2000/svg" xmlns:xlink="http://www.w3.org/1999/xlink"><path fill="#fff" d="M0 0h640v500H0z"/><defs><path id="d" stroke-width=".222" stroke="currentColor" d="M-1-1h2v2h-2z"/><path id="b" stroke-width=".222" stroke="currentColor" d="M0-1.33l-1.33 2h2.66z"/><path id="f" stroke-width=".222" stroke="currentColor" d="M0 1.33L1.265.411.782-1.067l-1.564-.009-.483 1.487z"/><use xlink:href="#b" id="c" stroke="currentColor" transform="rotate(180)"/><use xlink:href="#d" id="e" stroke="currentColor" transform="rotate(45)"/><circle id="a" stroke-width=".222" stroke="currentColor" cx="0" cy="0" r="1"/></defs><g fill="none" color="#000" stroke="currentColor"><path stroke="#000" d="M53.9 423.8h9m552.1 0h-9"/><text transform="translate(45.6 427.7)" stroke="none" fill="#000" font-family="Arial" font-size="12" text-anchor="end"><tspan>400</tspan></text></g><g fill="none" color="#000" stroke="currentColor"><path stroke="#000" d="M53.9 372.4h9m552.1 0h-9"/><text transform="translate(45.6 376.3)" stroke="none" fill="#000" font-family="Arial" font-size="12" text-anchor="end"><tspan>450</tspan></text></g><g fill="none" color="#000" stroke="currentColor"><path stroke="#000" d="M53.9 321h9m552.1 0h-9"/><text transform="translate(45.6 324.9)" stroke="none" fill="#000" font-family="Arial" font-size="12" text-anchor="end"><tspan>500</tspan></text></g><g fill="none" color="#000" stroke="currentColor"><path stroke="#000" d="M53.9 269.5h9m552.1 0h-9"/><text transform="translate(45.6 273.4)" stroke="none" fill="#000" font-family="Arial" font-size="12" text-anchor="end"><tspan>550</tspan></text></g><g fill="none" color="#000" stroke="currentColor"><path stroke="#000" d="M53.9 218.1h9m552.1 0h-9"/><text transform="translate(45.6 222)" stroke="none" fill="#000" font-family="Arial" font-size="12" text-anchor="end"><tspan>600</tspan></text></g><g fill="none" color="#000" stroke="currentColor"><path stroke="#000" d="M53.9 166.7h9m552.1 0h-9"/><text transform="translate(45.6 170.6)" stroke="none" fill="#000" font-family="Arial" font-size="12" text-anchor="end"><tspan>650</tspan></text></g><g fill="none" color="#000" stroke="currentColor"><path stroke="#000" d="M53.9 115.3h9m552.1 0h-9"/><text transform="translate(45.6 119.2)" stroke="none" fill="#000" font-family="Arial" font-size="12" text-anchor="end"><tspan>700</tspan></text></g><g fill="none" color="#000" stroke="currentColor"><path stroke="#000" d="M53.9 63.8h9m552.1 0h-9"/><text transform="translate(45.6 67.7)" stroke="none" fill="#000" font-family="Arial" font-size="12" text-anchor="end"><tspan>750</tspan></text></g><g fill="none" color="#000" stroke="currentColor"><path stroke="#000" d="M53.9 428v-9m0-400.9v9"/><text transform="translate(53.9 449.9)" stroke="none" fill="#000" font-family="Arial" font-size="12" text-anchor="middle"><tspan>0</tspan></text></g><g fill="none" color="#000" stroke="currentColor"><path stroke="#000" d="M110.6 428v-9m0-400.9v9"/><text transform="translate(110.6 449.9)" stroke="none" fill="#000" font-family="Arial" font-size="12" text-anchor="middle"><tspan>10</tspan></text></g><g fill="none" color="#000" stroke="currentColor"><path stroke="#000" d="M167.3 428v-9m0-400.9v9"/><text transform="translate(167.3 449.9)" stroke="none" fill="#000" font-family="Arial" font-size="12" text-anchor="middle"><tspan>20</tspan></text></g><g fill="none" color="#000" stroke="currentColor"><path stroke="#000" d="M223.9 428v-9m0-400.9v9"/><text transform="translate(223.9 449.9)" stroke="none" fill="#000" font-family="Arial" font-size="12" text-anchor="middle"><tspan>30</tspan></text></g><g fill="none" color="#000" stroke="currentColor"><path stroke="#000" d="M280.6 428v-9m0-400.9v9"/><text transform="translate(280.6 449.9)" stroke="none" fill="#000" font-family="Arial" font-size="12" text-anchor="middle"><tspan>40</tspan></text></g><g fill="none" color="#000" stroke="currentColor"><path stroke="#000" d="M337.3 428v-9m0-400.9v9"/><text transform="translate(337.3 449.9)" stroke="none" fill="#000" font-family="Arial" font-size="12" text-anchor="middle"><tspan>50</tspan></text></g><g fill="none" color="#000" stroke="currentColor"><path stroke="#000" d="M394 428v-9m0-400.9v9"/><text transform="translate(394 449.9)" stroke="none" fill="#000" font-family="Arial" font-size="12" text-anchor="middle"><tspan>60</tspan></text></g><g fill="none" color="#000" stroke="currentColor"><path stroke="#000" d="M450.6 428v-9m0-400.9v9"/><text transform="translate(450.6 449.9)" stroke="none" fill="#000" font-family="Arial" font-size="12" text-anchor="middle"><tspan>70</tspan></text></g><g fill="none" color="#000" stroke="currentColor"><path stroke="#000" d="M507.3 428v-9m0-400.9v9"/><text transform="translate(507.3 449.9)" stroke="none" fill="#000" font-family="Arial" font-size="12" text-anchor="middle"><tspan>80</tspan></text></g><g fill="none" color="#000" stroke="currentColor"><path stroke="#000" d="M564 428v-9m0-400.9v9"/><text transform="translate(564 449.9)" stroke="none" fill="#000" font-family="Arial" font-size="12" text-anchor="middle"><tspan>90</tspan></text></g><path stroke="#000" d="M53.9 18.1V428H615V18.1H53.9z" fill="none" color="#000"/><text transform="translate(275.6 467.9)" stroke="none" fill="#000" font-family="Arial" font-size="12" text-anchor="end" color="#000"><tspan>pages+cached+noexternal+noimg</tspan></text><path stroke="#9400D3" d="M283.9 464h42.2M53.9 130.3l5.7-17 5.6-1.1 5.7-1.1 5.7-1.5 5.6-1.6 5.7-2 5.7-.1 5.6-.1 5.7-.5 5.7-5.1 5.6-.1 5.7-1.5 5.7-.5 5.6-.3 5.7-1.2 5.7-.4h5.7l5.6-1.4 5.7-1.2 5.7-.1 5.6-.4 5.7-1 5.7-.5 5.6-1.7 5.7-.9 5.7-.7 5.6-.3 5.7-.2 5.7-.1 5.6-.4 5.7-.1 5.7-.9 5.6-.2 5.7-.1 5.7-.2h5.6l5.7-.6 5.7-.1 5.6-1 5.7-.4 5.7-.3 5.6-.1 5.7-.9h5.7l5.6-.3 5.7-.8 5.7-.4 5.6-.3 5.7-.6h5.7l5.7-.2 5.6-.1 5.7-.1 5.7-.3h5.6l5.7-.9 5.7-.1 5.6-.2 5.7-.1h11.3l5.7-.1 5.7-.1 5.6-.2 5.7-.5 5.7-.8 5.6-.8 5.7-1.1 5.7-.7 5.6-.2 5.7-.6 5.7-.3 5.6-.1 5.7-.3 5.7-.7 5.6-.6 5.7-.4h5.7l5.6-1 5.7-1.1 5.7-.8 5.6-.6 5.7-.1 5.7-1.4 5.7-.8 5.6-.4 5.7-.1 5.7-2.4 5.6-3.2L564 57l5.7-.8 5.6-1.5 5.7-2.4 5.7-.1 5.6-1.6L598 45l5.7-5.6 5.6-11.5L615 26" fill="none" color="#000"/><text transform="translate(275.6 485.9)" stroke="none" fill="#000" font-family="Arial" font-size="12" text-anchor="end" color="#000"><tspan>pages+cached+noexternal+nocss</tspan></text><path stroke="#009E73" d="M283.9 482h42.2M53.9 420.1l5.7-4.6 5.6-54.4 5.7-1.4 5.7-1 5.6-.4 5.7-2.9 5.7-.2 5.6-.3 5.7-.5 5.7-.2h5.6l5.7-3.1 5.7-.4 5.6-.3 5.7-.3 5.7-1h5.7l5.6-.3 5.7-.1 5.7-.2 5.6-.2 5.7-.1 5.7-.3 5.6-.1 5.7-.1 5.7-.2 5.6-.1 5.7-.2 5.7-.4 5.6-.1 5.7-.5 5.7-.1 5.6-.2 5.7-.2 5.7-.6h17l5.6-.1h5.7l5.7-.3h5.6l5.7-.2h5.7l5.6-.2 5.7-.3 5.7-.2 5.6-.3 5.7-.1 5.7-.3h5.7l5.6-.2 5.7-.1 5.7-.6 5.6-.4 5.7-.3 5.7-.3 5.6-.2 5.7-.4 5.7-.2 5.6-.1 5.7-.2 5.7-.2 5.6-.3 5.7-.3 5.7-.3 5.6-.2 5.7-.3 5.7-.4 5.6-1 5.7-.1 5.7-.1 5.6-.2 5.7-.3h5.7l5.6-.2 5.7-.6 5.7-.6 5.6-.4 5.7-.4 5.7-.5 5.6-.9 5.7-.2h5.7l5.7-.5 5.6-.6 5.7-.4 5.7-1.7 5.6-.2 5.7-.2 5.7-1.1 5.6-.9 5.7-.4 5.7-.5 5.6-.1 5.7-2.5 5.7-3.3 5.6-5.8 5.7-39.3" fill="none" color="#000"/><text transform="translate(575.1 467.9)" stroke="none" fill="#000" font-family="Arial" font-size="12" text-anchor="end" color="#000"><tspan>score p10=2017</tspan></text><path stroke="#56B4E9" d="M583.4 464h42.2" fill="none" color="#000"/><g><text transform="translate(575.1 485.9)" stroke="none" fill="#000" font-family="Arial" font-size="12" text-anchor="end" color="#000"><tspan>score median=4000</tspan></text><path stroke="#E69F00" d="M583.4 482h42.2" fill="none" color="#000"/></g><g fill="none" color="#000" stroke="currentColor"><path stroke="#000" d="M53.9 18.1V428H615V18.1H53.9z"/></g></svg>

<?xml version="1.0" encoding="utf-8"  standalone="no"?>
<svg 
 width="640" height="500"
 viewBox="0 0 640 500"
 xmlns="http://www.w3.org/2000/svg"
 xmlns:xlink="http://www.w3.org/1999/xlink"
>

<title>Gnuplot</title>
<desc>Produced by GNUPLOT 5.4 patchlevel 0 </desc>

<g id="gnuplot_canvas">

<rect x="0" y="0" width="640" height="500" fill="#ffffff"/>
<defs>

	<circle id='gpDot' r='0.5' stroke-width='0.5' stroke='currentColor'/>
	<path id='gpPt0' stroke-width='0.222' stroke='currentColor' d='M-1,0 h2 M0,-1 v2'/>
	<path id='gpPt1' stroke-width='0.222' stroke='currentColor' d='M-1,-1 L1,1 M1,-1 L-1,1'/>
	<path id='gpPt2' stroke-width='0.222' stroke='currentColor' d='M-1,0 L1,0 M0,-1 L0,1 M-1,-1 L1,1 M-1,1 L1,-1'/>
	<rect id='gpPt3' stroke-width='0.222' stroke='currentColor' x='-1' y='-1' width='2' height='2'/>
	<rect id='gpPt4' stroke-width='0.222' stroke='currentColor' fill='currentColor' x='-1' y='-1' width='2' height='2'/>
	<circle id='gpPt5' stroke-width='0.222' stroke='currentColor' cx='0' cy='0' r='1'/>
	<use xlink:href='#gpPt5' id='gpPt6' fill='currentColor' stroke='none'/>
	<path id='gpPt7' stroke-width='0.222' stroke='currentColor' d='M0,-1.33 L-1.33,0.67 L1.33,0.67 z'/>
	<use xlink:href='#gpPt7' id='gpPt8' fill='currentColor' stroke='none'/>
	<use xlink:href='#gpPt7' id='gpPt9' stroke='currentColor' transform='rotate(180)'/>
	<use xlink:href='#gpPt9' id='gpPt10' fill='currentColor' stroke='none'/>
	<use xlink:href='#gpPt3' id='gpPt11' stroke='currentColor' transform='rotate(45)'/>
	<use xlink:href='#gpPt11' id='gpPt12' fill='currentColor' stroke='none'/>
	<path id='gpPt13' stroke-width='0.222' stroke='currentColor' d='M0,1.330 L1.265,0.411 L0.782,-1.067 L-0.782,-1.076 L-1.265,0.411 z'/>
	<use xlink:href='#gpPt13' id='gpPt14' fill='currentColor' stroke='none'/>
	<filter id='textbox' filterUnits='objectBoundingBox' x='0' y='0' height='1' width='1'>
	  <feFlood flood-color='#FFFFFF' flood-opacity='1' result='bgnd'/>
	  <feComposite in='SourceGraphic' in2='bgnd' operator='atop'/>
	</filter>
	<filter id='greybox' filterUnits='objectBoundingBox' x='0' y='0' height='1' width='1'>
	  <feFlood flood-color='lightgrey' flood-opacity='1' result='grey'/>
	  <feComposite in='SourceGraphic' in2='grey' operator='atop'/>
	</filter>
</defs>
<g fill="none" color="#FFFFFF" stroke="black" stroke-width="1.00" stroke-linecap="butt" stroke-linejoin="miter">
</g>
<g fill="none" color="black" stroke="currentColor" stroke-width="1.00" stroke-linecap="butt" stroke-linejoin="miter">
	<path stroke='black'  d='M53.9,423.8 L62.9,423.8 M615.0,423.8 L606.0,423.8  '/>	<g transform="translate(45.6,427.7)" stroke="none" fill="black" font-family="Arial" font-size="12.00"  text-anchor="end">
		<text><tspan font-family="Arial" > 400</tspan></text>
	</g>
</g>
<g fill="none" color="black" stroke="currentColor" stroke-width="1.00" stroke-linecap="butt" stroke-linejoin="miter">
	<path stroke='black'  d='M53.9,372.4 L62.9,372.4 M615.0,372.4 L606.0,372.4  '/>	<g transform="translate(45.6,376.3)" stroke="none" fill="black" font-family="Arial" font-size="12.00"  text-anchor="end">
		<text><tspan font-family="Arial" > 450</tspan></text>
	</g>
</g>
<g fill="none" color="black" stroke="currentColor" stroke-width="1.00" stroke-linecap="butt" stroke-linejoin="miter">
	<path stroke='black'  d='M53.9,321.0 L62.9,321.0 M615.0,321.0 L606.0,321.0  '/>	<g transform="translate(45.6,324.9)" stroke="none" fill="black" font-family="Arial" font-size="12.00"  text-anchor="end">
		<text><tspan font-family="Arial" > 500</tspan></text>
	</g>
</g>
<g fill="none" color="black" stroke="currentColor" stroke-width="1.00" stroke-linecap="butt" stroke-linejoin="miter">
	<path stroke='black'  d='M53.9,269.5 L62.9,269.5 M615.0,269.5 L606.0,269.5  '/>	<g transform="translate(45.6,273.4)" stroke="none" fill="black" font-family="Arial" font-size="12.00"  text-anchor="end">
		<text><tspan font-family="Arial" > 550</tspan></text>
	</g>
</g>
<g fill="none" color="black" stroke="currentColor" stroke-width="1.00" stroke-linecap="butt" stroke-linejoin="miter">
	<path stroke='black'  d='M53.9,218.1 L62.9,218.1 M615.0,218.1 L606.0,218.1  '/>	<g transform="translate(45.6,222.0)" stroke="none" fill="black" font-family="Arial" font-size="12.00"  text-anchor="end">
		<text><tspan font-family="Arial" > 600</tspan></text>
	</g>
</g>
<g fill="none" color="black" stroke="currentColor" stroke-width="1.00" stroke-linecap="butt" stroke-linejoin="miter">
	<path stroke='black'  d='M53.9,166.7 L62.9,166.7 M615.0,166.7 L606.0,166.7  '/>	<g transform="translate(45.6,170.6)" stroke="none" fill="black" font-family="Arial" font-size="12.00"  text-anchor="end">
		<text><tspan font-family="Arial" > 650</tspan></text>
	</g>
</g>
<g fill="none" color="black" stroke="currentColor" stroke-width="1.00" stroke-linecap="butt" stroke-linejoin="miter">
	<path stroke='black'  d='M53.9,115.3 L62.9,115.3 M615.0,115.3 L606.0,115.3  '/>	<g transform="translate(45.6,119.2)" stroke="none" fill="black" font-family="Arial" font-size="12.00"  text-anchor="end">
		<text><tspan font-family="Arial" > 700</tspan></text>
	</g>
</g>
<g fill="none" color="black" stroke="currentColor" stroke-width="1.00" stroke-linecap="butt" stroke-linejoin="miter">
	<path stroke='black'  d='M53.9,63.8 L62.9,63.8 M615.0,63.8 L606.0,63.8  '/>	<g transform="translate(45.6,67.7)" stroke="none" fill="black" font-family="Arial" font-size="12.00"  text-anchor="end">
		<text><tspan font-family="Arial" > 750</tspan></text>
	</g>
</g>
<g fill="none" color="black" stroke="currentColor" stroke-width="1.00" stroke-linecap="butt" stroke-linejoin="miter">
	<path stroke='black'  d='M53.9,428.0 L53.9,419.0 M53.9,18.1 L53.9,27.1  '/>	<g transform="translate(53.9,449.9)" stroke="none" fill="black" font-family="Arial" font-size="12.00"  text-anchor="middle">
		<text><tspan font-family="Arial" > 0</tspan></text>
	</g>
</g>
<g fill="none" color="black" stroke="currentColor" stroke-width="1.00" stroke-linecap="butt" stroke-linejoin="miter">
	<path stroke='black'  d='M110.6,428.0 L110.6,419.0 M110.6,18.1 L110.6,27.1  '/>	<g transform="translate(110.6,449.9)" stroke="none" fill="black" font-family="Arial" font-size="12.00"  text-anchor="middle">
		<text><tspan font-family="Arial" > 10</tspan></text>
	</g>
</g>
<g fill="none" color="black" stroke="currentColor" stroke-width="1.00" stroke-linecap="butt" stroke-linejoin="miter">
	<path stroke='black'  d='M167.3,428.0 L167.3,419.0 M167.3,18.1 L167.3,27.1  '/>	<g transform="translate(167.3,449.9)" stroke="none" fill="black" font-family="Arial" font-size="12.00"  text-anchor="middle">
		<text><tspan font-family="Arial" > 20</tspan></text>
	</g>
</g>
<g fill="none" color="black" stroke="currentColor" stroke-width="1.00" stroke-linecap="butt" stroke-linejoin="miter">
	<path stroke='black'  d='M223.9,428.0 L223.9,419.0 M223.9,18.1 L223.9,27.1  '/>	<g transform="translate(223.9,449.9)" stroke="none" fill="black" font-family="Arial" font-size="12.00"  text-anchor="middle">
		<text><tspan font-family="Arial" > 30</tspan></text>
	</g>
</g>
<g fill="none" color="black" stroke="currentColor" stroke-width="1.00" stroke-linecap="butt" stroke-linejoin="miter">
	<path stroke='black'  d='M280.6,428.0 L280.6,419.0 M280.6,18.1 L280.6,27.1  '/>	<g transform="translate(280.6,449.9)" stroke="none" fill="black" font-family="Arial" font-size="12.00"  text-anchor="middle">
		<text><tspan font-family="Arial" > 40</tspan></text>
	</g>
</g>
<g fill="none" color="black" stroke="currentColor" stroke-width="1.00" stroke-linecap="butt" stroke-linejoin="miter">
	<path stroke='black'  d='M337.3,428.0 L337.3,419.0 M337.3,18.1 L337.3,27.1  '/>	<g transform="translate(337.3,449.9)" stroke="none" fill="black" font-family="Arial" font-size="12.00"  text-anchor="middle">
		<text><tspan font-family="Arial" > 50</tspan></text>
	</g>
</g>
<g fill="none" color="black" stroke="currentColor" stroke-width="1.00" stroke-linecap="butt" stroke-linejoin="miter">
	<path stroke='black'  d='M394.0,428.0 L394.0,419.0 M394.0,18.1 L394.0,27.1  '/>	<g transform="translate(394.0,449.9)" stroke="none" fill="black" font-family="Arial" font-size="12.00"  text-anchor="middle">
		<text><tspan font-family="Arial" > 60</tspan></text>
	</g>
</g>
<g fill="none" color="black" stroke="currentColor" stroke-width="1.00" stroke-linecap="butt" stroke-linejoin="miter">
	<path stroke='black'  d='M450.6,428.0 L450.6,419.0 M450.6,18.1 L450.6,27.1  '/>	<g transform="translate(450.6,449.9)" stroke="none" fill="black" font-family="Arial" font-size="12.00"  text-anchor="middle">
		<text><tspan font-family="Arial" > 70</tspan></text>
	</g>
</g>
<g fill="none" color="black" stroke="currentColor" stroke-width="1.00" stroke-linecap="butt" stroke-linejoin="miter">
	<path stroke='black'  d='M507.3,428.0 L507.3,419.0 M507.3,18.1 L507.3,27.1  '/>	<g transform="translate(507.3,449.9)" stroke="none" fill="black" font-family="Arial" font-size="12.00"  text-anchor="middle">
		<text><tspan font-family="Arial" > 80</tspan></text>
	</g>
</g>
<g fill="none" color="black" stroke="currentColor" stroke-width="1.00" stroke-linecap="butt" stroke-linejoin="miter">
	<path stroke='black'  d='M564.0,428.0 L564.0,419.0 M564.0,18.1 L564.0,27.1  '/>	<g transform="translate(564.0,449.9)" stroke="none" fill="black" font-family="Arial" font-size="12.00"  text-anchor="middle">
		<text><tspan font-family="Arial" > 90</tspan></text>
	</g>
</g>
<g fill="none" color="black" stroke="currentColor" stroke-width="1.00" stroke-linecap="butt" stroke-linejoin="miter">
</g>
<g fill="none" color="black" stroke="currentColor" stroke-width="1.00" stroke-linecap="butt" stroke-linejoin="miter">
	<path stroke='black'  d='M53.9,18.1 L53.9,428.0 L615.0,428.0 L615.0,18.1 L53.9,18.1 Z  '/></g>
<g fill="none" color="black" stroke="currentColor" stroke-width="1.00" stroke-linecap="butt" stroke-linejoin="miter">
</g>
	<g id="gnuplot_plot_1" ><title>pages+cached+noexternal+noimg</title>
<g fill="none" color="black" stroke="currentColor" stroke-width="1.00" stroke-linecap="butt" stroke-linejoin="miter">
	<g transform="translate(275.6,467.9)" stroke="none" fill="black" font-family="Arial" font-size="12.00"  text-anchor="end">
		<text><tspan font-family="Arial" >pages+cached+noexternal+noimg</tspan></text>
	</g>
</g>
<g fill="none" color="black" stroke="currentColor" stroke-width="1.00" stroke-linecap="butt" stroke-linejoin="miter">
	<path stroke='rgb(148,   0, 211)'  d='M283.9,464.0 L326.1,464.0 M53.9,130.3 L59.6,113.3 L65.2,112.2 L70.9,111.1 L76.6,109.6 L82.2,108.0
		L87.9,106.0 L93.6,105.9 L99.2,105.8 L104.9,105.3 L110.6,100.2 L116.2,100.1 L121.9,98.6 L127.6,98.1
		L133.2,97.8 L138.9,96.6 L144.6,96.2 L150.3,96.2 L155.9,94.8 L161.6,93.6 L167.3,93.5 L172.9,93.1
		L178.6,92.1 L184.3,91.6 L189.9,89.9 L195.6,89.0 L201.3,88.3 L206.9,88.0 L212.6,87.8 L218.3,87.7
		L223.9,87.3 L229.6,87.2 L235.3,86.3 L240.9,86.1 L246.6,86.0 L252.3,85.8 L257.9,85.8 L263.6,85.2
		L269.3,85.1 L274.9,84.1 L280.6,83.7 L286.3,83.4 L291.9,83.3 L297.6,82.4 L303.3,82.4 L308.9,82.1
		L314.6,81.3 L320.3,80.9 L325.9,80.6 L331.6,80.0 L337.3,80.0 L343.0,79.8 L348.6,79.7 L354.3,79.6
		L360.0,79.3 L365.6,79.3 L371.3,78.4 L377.0,78.3 L382.6,78.1 L388.3,78.0 L394.0,78.0 L399.6,78.0
		L405.3,77.9 L411.0,77.8 L416.6,77.6 L422.3,77.1 L428.0,76.3 L433.6,75.5 L439.3,74.4 L445.0,73.7
		L450.6,73.5 L456.3,72.9 L462.0,72.6 L467.6,72.5 L473.3,72.2 L479.0,71.5 L484.6,70.9 L490.3,70.5
		L496.0,70.5 L501.6,69.5 L507.3,68.4 L513.0,67.6 L518.6,67.0 L524.3,66.9 L530.0,65.5 L535.7,64.7
		L541.3,64.3 L547.0,64.2 L552.7,61.8 L558.3,58.6 L564.0,57.0 L569.7,56.2 L575.3,54.7 L581.0,52.3
		L586.7,52.2 L592.3,50.6 L598.0,45.0 L603.7,39.4 L609.3,27.9 L615.0,26.0  '/></g>
	</g>
	<g id="gnuplot_plot_2" ><title>pages+cached+noexternal+nocss</title>
<g fill="none" color="black" stroke="currentColor" stroke-width="1.00" stroke-linecap="butt" stroke-linejoin="miter">
	<g transform="translate(275.6,485.9)" stroke="none" fill="black" font-family="Arial" font-size="12.00"  text-anchor="end">
		<text><tspan font-family="Arial" >pages+cached+noexternal+nocss</tspan></text>
	</g>
</g>
<g fill="none" color="black" stroke="currentColor" stroke-width="1.00" stroke-linecap="butt" stroke-linejoin="miter">
	<path stroke='rgb(  0, 158, 115)'  d='M283.9,482.0 L326.1,482.0 M53.9,420.1 L59.6,415.5 L65.2,361.1 L70.9,359.7 L76.6,358.7 L82.2,358.3
		L87.9,355.4 L93.6,355.2 L99.2,354.9 L104.9,354.4 L110.6,354.2 L116.2,354.2 L121.9,351.1 L127.6,350.7
		L133.2,350.4 L138.9,350.1 L144.6,349.1 L150.3,349.1 L155.9,348.8 L161.6,348.7 L167.3,348.5 L172.9,348.3
		L178.6,348.2 L184.3,347.9 L189.9,347.8 L195.6,347.7 L201.3,347.5 L206.9,347.4 L212.6,347.2 L218.3,346.8
		L223.9,346.7 L229.6,346.2 L235.3,346.1 L240.9,345.9 L246.6,345.7 L252.3,345.1 L257.9,345.1 L263.6,345.1
		L269.3,345.1 L274.9,345.0 L280.6,345.0 L286.3,344.7 L291.9,344.7 L297.6,344.5 L303.3,344.5 L308.9,344.3
		L314.6,344.0 L320.3,343.8 L325.9,343.5 L331.6,343.4 L337.3,343.1 L343.0,343.1 L348.6,342.9 L354.3,342.8
		L360.0,342.2 L365.6,341.8 L371.3,341.5 L377.0,341.2 L382.6,341.0 L388.3,340.6 L394.0,340.4 L399.6,340.3
		L405.3,340.1 L411.0,339.9 L416.6,339.6 L422.3,339.3 L428.0,339.0 L433.6,338.8 L439.3,338.5 L445.0,338.1
		L450.6,337.1 L456.3,337.0 L462.0,336.9 L467.6,336.7 L473.3,336.4 L479.0,336.4 L484.6,336.2 L490.3,335.6
		L496.0,335.0 L501.6,334.6 L507.3,334.2 L513.0,333.7 L518.6,332.8 L524.3,332.6 L530.0,332.6 L535.7,332.1
		L541.3,331.5 L547.0,331.1 L552.7,329.4 L558.3,329.2 L564.0,329.0 L569.7,327.9 L575.3,327.0 L581.0,326.6
		L586.7,326.1 L592.3,326.0 L598.0,323.5 L603.7,320.2 L609.3,314.4 L615.0,275.1  '/></g>
	</g>
	<g id="gnuplot_plot_3" ><title>score p10=2017</title>
<g fill="none" color="black" stroke="currentColor" stroke-width="1.00" stroke-linecap="butt" stroke-linejoin="miter">
	<g transform="translate(575.1,467.9)" stroke="none" fill="black" font-family="Arial" font-size="12.00"  text-anchor="end">
		<text><tspan font-family="Arial" >score p10=2017</tspan></text>
	</g>
</g>
<g fill="none" color="black" stroke="currentColor" stroke-width="1.00" stroke-linecap="butt" stroke-linejoin="miter">
	<path stroke='rgb( 86, 180, 233)'  d='M583.4,464.0 L625.6,464.0  '/></g>
	</g>
	<g id="gnuplot_plot_4" ><title>score median=4000</title>
<g fill="none" color="black" stroke="currentColor" stroke-width="1.00" stroke-linecap="butt" stroke-linejoin="miter">
	<g transform="translate(575.1,485.9)" stroke="none" fill="black" font-family="Arial" font-size="12.00"  text-anchor="end">
		<text><tspan font-family="Arial" >score median=4000</tspan></text>
	</g>
</g>
<g fill="none" color="black" stroke="currentColor" stroke-width="1.00" stroke-linecap="butt" stroke-linejoin="miter">
	<path stroke='rgb(230, 159,   0)'  d='M583.4,482.0 L625.6,482.0  '/></g>
	</g>
<g fill="none" color="#FFFFFF" stroke="rgb(230, 159,   0)" stroke-width="2.00" stroke-linecap="butt" stroke-linejoin="miter">
</g>
<g fill="none" color="black" stroke="currentColor" stroke-width="2.00" stroke-linecap="butt" stroke-linejoin="miter">
</g>
<g fill="none" color="black" stroke="black" stroke-width="1.00" stroke-linecap="butt" stroke-linejoin="miter">
</g>
<g fill="none" color="black" stroke="currentColor" stroke-width="1.00" stroke-linecap="butt" stroke-linejoin="miter">
	<path stroke='black'  d='M53.9,18.1 L53.9,428.0 L615.0,428.0 L615.0,18.1 L53.9,18.1 Z  '/></g>
<g fill="none" color="black" stroke="currentColor" stroke-width="1.00" stroke-linecap="butt" stroke-linejoin="miter">
</g>
</g>
</svg>
